icons/numix/32x32/mimetypes/wps-office-doc.svg

<?xml version="1.0" encoding="UTF-8" standalone="no"?>
<svg
   xmlns:dc="http://purl.org/dc/elements/1.1/"
   xmlns:cc="http://creativecommons.org/ns#"
   xmlns:rdf="http://www.w3.org/1999/02/22-rdf-syntax-ns#"
   xmlns:svg="http://www.w3.org/2000/svg"
   xmlns="http://www.w3.org/2000/svg"
   xmlns:sodipodi="http://sodipodi.sourceforge.net/DTD/sodipodi-0.dtd"
   xmlns:inkscape="http://www.inkscape.org/namespaces/inkscape"
   width="32"
   height="32"
   viewBox="0 0 32 32"
   id="svg2"
   version="1.1"
   inkscape:version="0.48.5 r10040"
   sodipodi:docname="wps-office-doc.svg">
  <metadata
     id="metadata42">
    <rdf:RDF>
      <cc:Work
         rdf:about="">
        <dc:format>image/svg+xml</dc:format>
        <dc:type
           rdf:resource="http://purl.org/dc/dcmitype/StillImage" />
      </cc:Work>
    </rdf:RDF>
  </metadata>
  <defs
     id="defs40" />
  <sodipodi:namedview
     pagecolor="#ffffff"
     bordercolor="#666666"
     borderopacity="1"
     objecttolerance="10"
     gridtolerance="10"
     guidetolerance="10"
     inkscape:pageopacity="0"
     inkscape:pageshadow="2"
     inkscape:window-width="1280"
     inkscape:window-height="970"
     id="namedview38"
     showgrid="true"
     inkscape:zoom="20.85965"
     inkscape:cx="17.002104"
     inkscape:cy="6.9711351"
     inkscape:window-x="0"
     inkscape:window-y="0"
     inkscape:window-maximized="1"
     inkscape:current-layer="svg2">
    <inkscape:grid
       type="xygrid"
       id="grid3046" />
  </sodipodi:namedview>
  <path
     style="fill:#3468ce;fill-opacity:1"
     d="M 5.335888,2.97e-4 C 4.648414,3.12e-4 4,0.676788 4,1.394031 L 4,30.606268 C 4,31.282757 4.687474,32 5.335888,32 l 21.327333,0 c 0.648413,0 1.335888,-0.717243 1.335888,-1.393732 L 28.000001,9 l -9,-9 z"
     id="path4-1"
     inkscape:connector-curvature="0"
     sodipodi:nodetypes="ssssssccs" />
  <path
     style="fill:#000000;fill-opacity:0.19599998"
     d="m 21,9 7,7 0,-7 z"
     id="path6-4"
     inkscape:connector-curvature="0"
     sodipodi:nodetypes="cccc" />
  <path
     style="fill:#ffffff;fill-opacity:0.39200003"
     d="M 19.000306,2.97e-4 27.9919,9 20.378638,9 C 19.705688,9 19.000306,8.2865104 19.000306,7.61356 z"
     id="path8-6"
     inkscape:connector-curvature="0"
     sodipodi:nodetypes="ccssc" />
  <rect
     style="fill:#f9f9f9;fill-opacity:1;fill-rule:evenodd;stroke:none"
     id="rect3029"
     width="6"
     height="5"
     x="10"
     y="11" />
  <rect
     style="fill:#f9f9f9;fill-opacity:1;fill-rule:evenodd;stroke:none"
     id="rect3031"
     width="5"
     height="1"
     x="17"
     y="11" />
  <path
     style="fill:#000000;fill-opacity:0.19599998"
     d="m 4,24 0,6.667969 C 4,31.316407 4.6874999,32 5.3320309,32 L 26.667969,32 C 27.3125,32 28,31.316407 28,30.667969 L 28,24 z"
     id="path26"
     inkscape:connector-curvature="0" />
  <rect
     style="fill:#f9f9f9;fill-opacity:1;fill-rule:evenodd;stroke:none"
     id="rect3033"
     width="5"
     height="1"
     x="17"
     y="12.999999" />
  <g
     style="fill:#ffffff"
     id="g30"
     transform="matrix(1.0527705,0,0,1.0527705,-0.85183126,-0.5245205)">
    <path
       d="m 10.492188,29.066406 c 0.03125,0.0078 0.06641,0.0078 0.105468,0.0078 0.03516,0 0.07031,0 0.101563,0 0.265625,0 0.484375,-0.04297 0.660156,-0.132813 0.183594,-0.08594 0.328125,-0.207031 0.433594,-0.363281 0.113281,-0.152344 0.191406,-0.335937 0.234375,-0.542969 0.05078,-0.214844 0.07813,-0.449218 0.07813,-0.703125 0,-0.21875 -0.01953,-0.433593 -0.05859,-0.644531 -0.03906,-0.207031 -0.101563,-0.390625 -0.199219,-0.550781 -0.09375,-0.160157 -0.222656,-0.285157 -0.382812,-0.378907 -0.164063,-0.101562 -0.375,-0.148437 -0.632813,-0.148437 -0.05078,0 -0.105469,0 -0.171875,0.0078 -0.0625,0 -0.117187,0.0039 -0.167968,0.01562 l 0,3.433594 m 2.789062,-1.734375 c 0,0.472657 -0.07031,0.878907 -0.207031,1.214844 -0.132813,0.332031 -0.316407,0.601563 -0.554688,0.808594 -0.238281,0.210937 -0.527343,0.363281 -0.859375,0.460937 -0.324218,0.09375 -0.6875,0.140625 -1.082031,0.140625 -0.207031,0 -0.414063,-0.0078 -0.613281,-0.03125 -0.195313,-0.01563 -0.40625,-0.04687 -0.632813,-0.08984 l 0,-4.988282 c 0.265625,-0.05078 0.511719,-0.08203 0.746094,-0.09766 0.230469,-0.01563 0.449219,-0.02734 0.648437,-0.02734 0.382813,0 0.734376,0.05078 1.046876,0.148438 0.320312,0.101562 0.589843,0.257812 0.8125,0.472656 0.21875,0.207031 0.386718,0.480469 0.507812,0.808594 0.125,0.324218 0.1875,0.71875 0.1875,1.179687"
       id="path32"
       inkscape:connector-curvature="0" />
    <path
       d="m 14.96875,27.332031 c 0,0.25 0.0078,0.484375 0.02734,0.703125 0.02734,0.214844 0.07031,0.402344 0.132812,0.5625 0.07031,0.160156 0.164063,0.285156 0.28125,0.378906 0.121094,0.09375 0.28125,0.140626 0.480469,0.140626 0.195313,0 0.351563,-0.04688 0.472656,-0.140626 0.125,-0.09375 0.21875,-0.21875 0.28125,-0.378906 0.07031,-0.167968 0.113281,-0.355468 0.132813,-0.570312 0.02344,-0.214844 0.03906,-0.445313 0.03906,-0.695313 0,-0.246093 -0.01563,-0.476562 -0.03906,-0.691406 -0.01953,-0.222656 -0.0625,-0.410156 -0.132813,-0.570313 -0.0625,-0.160156 -0.152343,-0.285156 -0.273437,-0.378906 -0.117188,-0.09375 -0.277344,-0.140625 -0.480469,-0.140625 -0.199219,0 -0.359375,0.04687 -0.480469,0.140625 -0.117187,0.09375 -0.210937,0.222656 -0.28125,0.386719 -0.0625,0.160156 -0.105468,0.347656 -0.132812,0.5625 -0.01953,0.214844 -0.02734,0.445313 -0.02734,0.691406 m -1.179688,0 c 0,-0.878906 0.1875,-1.542969 0.558594,-1.988281 0.371094,-0.453125 0.882813,-0.675781 1.542969,-0.675781 0.6875,0 1.207031,0.222656 1.566406,0.675781 0.355469,0.445312 0.535157,1.109375 0.535157,1.988281 0,0.882813 -0.179688,1.546875 -0.546876,2 C 17.082031,29.777344 16.566406,30 15.902344,30 c -0.6875,0 -1.210938,-0.222656 -1.574219,-0.667969 -0.359375,-0.453125 -0.539063,-1.117187 -0.539063,-2"
       id="path34"
       inkscape:connector-curvature="0" />
    <path
       d="M 21.035156,30 C 20.214844,30 19.585938,29.769531 19.152344,29.304688 18.71875,28.84375 18.5,28.1875 18.5,27.332031 c 0,-0.421875 0.06641,-0.800781 0.199219,-1.128906 0.132812,-0.332031 0.316406,-0.609375 0.546875,-0.835937 0.238281,-0.230469 0.519531,-0.402344 0.839844,-0.519532 0.324218,-0.121094 0.679687,-0.179687 1.0625,-0.179687 0.207031,0 0.394531,0.01563 0.558593,0.04687 0.167969,0.02734 0.316407,0.0625 0.441407,0.101562 0.125,0.03906 0.230468,0.07813 0.3125,0.121094 0.08594,0.04687 0.152343,0.07813 0.195312,0.101562 l -0.300781,0.808594 c -0.144531,-0.08203 -0.320313,-0.152344 -0.527344,-0.207031 -0.199219,-0.05859 -0.433594,-0.08984 -0.699219,-0.08984 -0.179687,0 -0.359375,0.03125 -0.535156,0.08984 -0.167969,0.05469 -0.324219,0.152344 -0.460938,0.289063 -0.132812,0.132812 -0.242187,0.3125 -0.332031,0.535156 -0.08203,0.226562 -0.121093,0.507812 -0.121093,0.84375 0,0.582031 0.113281,1.03125 0.339843,1.34375 0.230469,0.308594 0.609375,0.464844 1.128907,0.464844 0.300781,0 0.550781,-0.03125 0.746093,-0.08984 0.199219,-0.0625 0.359375,-0.121094 0.480469,-0.183594 l 0.292969,0.800781 C 22.503906,29.73437 22.28125,29.816405 21.996094,29.890624 21.722656,29.964844 21.402344,30 21.035156,30"
       id="path36"
       inkscape:connector-curvature="0" />
  </g>
  <rect
     style="fill:#f9f9f9;fill-opacity:1;fill-rule:evenodd;stroke:none"
     id="rect3035"
     width="5"
     height="1"
     x="17"
     y="14.999999" />
  <rect
     style="fill:#f9f9f9;fill-opacity:1;fill-rule:evenodd;stroke:none"
     id="rect3037"
     width="12"
     height="1"
     x="10"
     y="17" />
  <rect
     style="fill:#f9f9f9;fill-opacity:1;fill-rule:evenodd;stroke:none"
     id="rect3039"
     width="12"
     height="1"
     x="10"
     y="19" />
  <rect
     style="fill:#f9f9f9;fill-opacity:1;fill-rule:evenodd;stroke:none"
     id="rect3041"
     width="12"
     height="1"
     x="10"
     y="21" />
</svg>

<svg width="32" xmlns="http://www.w3.org/2000/svg" height="32" viewBox="0 0 32 32" xmlns:xlink="http://www.w3.org/1999/xlink">
<path style="fill:#3468ce" d="M 5.332031 0.667969 C 4.648438 0.667969 4 1.3125 4 2 L 4 30 C 4 30.648438 4.6875 31.332031 5.332031 31.332031 L 26.667969 31.332031 C 27.3125 31.332031 28 30.648438 28 30 L 28 9.332031 L 19.332031 0.667969 Z "/>
<path style="fill:#000;fill-opacity:.196" d="M 19.332031 8 L 19.375 8.042969 L 19.480469 8 Z M 20.667969 9.332031 L 28 16.667969 L 28 9.332031 Z "/>
<g style="fill:#fff">
<path style="fill-opacity:.392" d="M 19.332031 0.667969 L 28 9.332031 L 20.667969 9.332031 C 20.019531 9.332031 19.332031 8.648438 19.332031 8 Z "/>
<path d="M 10.71875 10.667969 L 15.28125 10.667969 C 15.492188 10.667969 15.667969 10.847656 15.667969 11.066406 L 15.667969 14.933594 C 15.667969 15.152344 15.492188 15.332031 15.28125 15.332031 L 10.71875 15.332031 C 10.507812 15.332031 10.332031 15.152344 10.332031 14.933594 L 10.332031 11.066406 C 10.332031 10.847656 10.507812 10.667969 10.71875 10.667969 Z "/>
</g>
<g style="fill:none;stroke-linejoin:round;stroke:#fff;stroke-linecap:round">
<path d="M 26.498047 17.5 L 31.501953 17.5 " transform="matrix(.66667 0 0 .66667 -.33333 -.66667)"/>
<path d="M 26.498047 20.5 L 31.501953 20.5 " transform="matrix(.66667 0 0 .66667 -.33333 -.66667)"/>
<path d="M 26.498047 23.5 L 31.501953 23.5 " transform="matrix(.66667 0 0 .66667 -.33333 -.66667)"/>
<path d="M 15.998047 26.5 L 32 26.5 " transform="matrix(.66667 0 0 .66667 -.33333 -.66667)"/>
<path d="M 15.998047 29.5 L 32 29.5 " transform="matrix(.66667 0 0 .66667 -.33333 -.66667)"/>
<path d="M 15.998047 32.5 L 32 32.5 " transform="matrix(.66667 0 0 .66667 -.33333 -.66667)"/>
</g>
<path style="fill:#000;fill-opacity:.196" d="M 4 23.332031 L 4 30 C 4 30.648438 4.6875 31.332031 5.332031 31.332031 L 26.667969 31.332031 C 27.3125 31.332031 28 30.648438 28 30 L 28 23.332031 Z "/>
<g style="fill:#fff">
<path d="M 10.492188 29.066406 C 10.523438 29.074219 10.558594 29.074219 10.597656 29.074219 C 10.632812 29.074219 10.667969 29.074219 10.699219 29.074219 C 10.964844 29.074219 11.183594 29.03125 11.359375 28.941406 C 11.542969 28.855469 11.6875 28.734375 11.792969 28.578125 C 11.90625 28.425781 11.984375 28.242188 12.027344 28.035156 C 12.078125 27.820312 12.105469 27.585938 12.105469 27.332031 C 12.105469 27.113281 12.085938 26.898438 12.046875 26.6875 C 12.007812 26.480469 11.945312 26.296875 11.847656 26.136719 C 11.753906 25.976562 11.625 25.851562 11.464844 25.757812 C 11.300781 25.65625 11.089844 25.609375 10.832031 25.609375 C 10.78125 25.609375 10.726562 25.609375 10.660156 25.617188 C 10.597656 25.617188 10.542969 25.621094 10.492188 25.632812 L 10.492188 29.066406 M 13.28125 27.332031 C 13.28125 27.804688 13.210938 28.210938 13.074219 28.546875 C 12.941406 28.878906 12.757812 29.148438 12.519531 29.355469 C 12.28125 29.566406 11.992188 29.71875 11.660156 29.816406 C 11.335938 29.910156 10.972656 29.957031 10.578125 29.957031 C 10.371094 29.957031 10.164062 29.949219 9.964844 29.925781 C 9.769531 29.910156 9.558594 29.878906 9.332031 29.835938 L 9.332031 24.847656 C 9.597656 24.796875 9.84375 24.765625 10.078125 24.75 C 10.308594 24.734375 10.527344 24.722656 10.726562 24.722656 C 11.109375 24.722656 11.460938 24.773438 11.773438 24.871094 C 12.09375 24.972656 12.363281 25.128906 12.585938 25.34375 C 12.804688 25.550781 12.972656 25.824219 13.09375 26.152344 C 13.21875 26.476562 13.28125 26.871094 13.28125 27.332031 "/>
<path d="M 14.96875 27.332031 C 14.96875 27.582031 14.976562 27.816406 14.996094 28.035156 C 15.023438 28.25 15.066406 28.4375 15.128906 28.597656 C 15.199219 28.757812 15.292969 28.882812 15.410156 28.976562 C 15.53125 29.070312 15.691406 29.117188 15.890625 29.117188 C 16.085938 29.117188 16.242188 29.070312 16.363281 28.976562 C 16.488281 28.882812 16.582031 28.757812 16.644531 28.597656 C 16.714844 28.429688 16.757812 28.242188 16.777344 28.027344 C 16.800781 27.8125 16.816406 27.582031 16.816406 27.332031 C 16.816406 27.085938 16.800781 26.855469 16.777344 26.640625 C 16.757812 26.417969 16.714844 26.230469 16.644531 26.070312 C 16.582031 25.910156 16.492188 25.785156 16.371094 25.691406 C 16.253906 25.597656 16.09375 25.550781 15.890625 25.550781 C 15.691406 25.550781 15.53125 25.597656 15.410156 25.691406 C 15.292969 25.785156 15.199219 25.914062 15.128906 26.078125 C 15.066406 26.238281 15.023438 26.425781 14.996094 26.640625 C 14.976562 26.855469 14.96875 27.085938 14.96875 27.332031 M 13.789062 27.332031 C 13.789062 26.453125 13.976562 25.789062 14.347656 25.34375 C 14.71875 24.890625 15.230469 24.667969 15.890625 24.667969 C 16.578125 24.667969 17.097656 24.890625 17.457031 25.34375 C 17.8125 25.789062 17.992188 26.453125 17.992188 27.332031 C 17.992188 28.214844 17.8125 28.878906 17.445312 29.332031 C 17.082031 29.777344 16.566406 30 15.902344 30 C 15.214844 30 14.691406 29.777344 14.328125 29.332031 C 13.96875 28.878906 13.789062 28.214844 13.789062 27.332031 "/>
<path d="M 21.035156 30 C 20.214844 30 19.585938 29.769531 19.152344 29.304688 C 18.71875 28.84375 18.5 28.1875 18.5 27.332031 C 18.5 26.910156 18.566406 26.53125 18.699219 26.203125 C 18.832031 25.871094 19.015625 25.59375 19.246094 25.367188 C 19.484375 25.136719 19.765625 24.964844 20.085938 24.847656 C 20.410156 24.726562 20.765625 24.667969 21.148438 24.667969 C 21.355469 24.667969 21.542969 24.683594 21.707031 24.714844 C 21.875 24.742188 22.023438 24.777344 22.148438 24.816406 C 22.273438 24.855469 22.378906 24.894531 22.460938 24.9375 C 22.546875 24.984375 22.613281 25.015625 22.65625 25.039062 L 22.355469 25.847656 C 22.210938 25.765625 22.035156 25.695312 21.828125 25.640625 C 21.628906 25.582031 21.394531 25.550781 21.128906 25.550781 C 20.949219 25.550781 20.769531 25.582031 20.59375 25.640625 C 20.425781 25.695312 20.269531 25.792969 20.132812 25.929688 C 20 26.0625 19.890625 26.242188 19.800781 26.464844 C 19.71875 26.691406 19.679688 26.972656 19.679688 27.308594 C 19.679688 27.890625 19.792969 28.339844 20.019531 28.652344 C 20.25 28.960938 20.628906 29.117188 21.148438 29.117188 C 21.449219 29.117188 21.699219 29.085938 21.894531 29.027344 C 22.09375 28.964844 22.253906 28.90625 22.375 28.84375 L 22.667969 29.644531 C 22.503906 29.734375 22.28125 29.816406 21.996094 29.890625 C 21.722656 29.964844 21.402344 30 21.035156 30 "/>
</g>
</svg>
